_inc/systems/logos/androidgames.svg

<?xml version="1.0" encoding="utf-8"?>
<svg width="100%" height="100%" viewBox="0 0 168 62" version="1.1" style="fill-rule:evenodd;clip-rule:evenodd;stroke-linejoin:round;stroke-miterlimit:2;" xmlns="http://www.w3.org/2000/svg">
  <path d="M 126.235 11.068 C 125.651 11.068 125.17 10.587 125.17 10.003 C 125.17 9.42 125.651 8.939 126.235 8.939 C 126.819 8.939 127.299 9.42 127.299 10.003 C 127.299 10.587 126.819 11.068 126.235 11.068 M 114.515 11.068 C 113.931 11.068 113.45 10.587 113.45 10.003 C 113.45 9.42 113.931 8.939 114.515 8.939 C 115.099 8.939 115.579 9.42 115.579 10.003 C 115.579 10.587 115.099 11.068 114.515 11.068 M 126.612 4.681 L 128.741 1.011 C 128.779 0.945 128.799 0.869 128.799 0.793 C 128.799 0.552 128.6 0.353 128.359 0.353 C 128.2 0.353 128.053 0.44 127.976 0.579 L 125.825 4.293 C 124.116 3.512 122.259 3.111 120.38 3.118 C 118.5 3.113 116.64 3.51 114.925 4.282 L 112.774 0.567 C 112.696 0.431 112.55 0.346 112.393 0.346 C 112.151 0.346 111.953 0.545 111.953 0.786 C 111.953 0.861 111.972 0.934 112.009 1 L 114.127 4.67 C 110.41 6.697 107.962 10.474 107.629 14.694 L 133.098 14.694 C 132.775 10.476 130.329 6.7 126.612 4.681" style="fill:white;fill-rule:nonzero;"/>
  <path d="M 38.983 4.72 C 40.363 4.72 41.51 5.432 42.055 6.2 L 42.055 4.909 L 44.159 4.909 L 44.159 14.493 L 42.645 14.493 C 42.311 14.493 42.044 14.226 42.044 13.892 L 42.044 13.202 C 41.51 13.981 40.363 14.694 38.983 14.694 C 36.356 14.694 34.363 12.445 34.363 9.707 C 34.363 6.968 36.356 4.72 38.983 4.72 M 39.362 6.634 C 37.658 6.634 36.501 7.981 36.501 9.707 C 36.501 11.432 37.647 12.779 39.362 12.779 C 41.065 12.779 42.222 11.432 42.222 9.707 C 42.222 7.981 41.076 6.634 39.362 6.634" style="fill:white;fill-rule:nonzero;"/>
  <path d="M 46.553 4.909 L 48.668 4.909 L 48.668 6.211 C 49.246 5.254 50.337 4.72 51.584 4.72 C 53.81 4.72 55.246 6.289 55.246 8.727 L 55.246 14.493 L 53.732 14.493 C 53.398 14.493 53.131 14.226 53.131 13.892 L 53.131 9.072 C 53.131 7.558 52.363 6.634 51.139 6.634 C 49.736 6.634 48.668 7.725 48.668 9.773 L 48.668 14.493 L 47.154 14.493 C 46.82 14.493 46.553 14.226 46.553 13.892 L 46.553 4.909 Z" style="fill:white;fill-rule:nonzero;"/>
  <path d="M 61.536 4.72 C 62.916 4.72 64.063 5.432 64.608 6.2 L 64.608 0.122 L 66.712 0.122 L 66.712 14.504 L 65.198 14.504 C 64.864 14.504 64.597 14.237 64.597 13.903 L 64.597 13.213 C 64.063 13.981 62.905 14.694 61.525 14.694 C 58.897 14.694 56.905 12.445 56.905 9.707 C 56.916 6.968 58.909 4.72 61.536 4.72 M 61.914 6.634 C 60.211 6.634 59.053 7.981 59.053 9.707 C 59.053 11.432 60.2 12.779 61.914 12.779 C 63.617 12.779 64.775 11.432 64.775 9.707 C 64.775 7.981 63.617 6.634 61.914 6.634" style="fill:white;fill-rule:nonzero;"/>
  <path d="M 69.083 4.909 L 71.209 4.909 L 71.209 6.612 C 71.576 5.521 72.645 4.809 73.736 4.809 C 74.003 4.809 74.27 4.831 74.56 4.887 L 74.56 7.057 C 74.192 6.946 73.892 6.879 73.502 6.879 C 72.289 6.879 71.198 7.892 71.198 9.818 L 71.198 14.493 L 69.684 14.493 C 69.35 14.493 69.083 14.226 69.083 13.892 L 69.083 4.909 Z" style="fill:white;fill-rule:nonzero;"/>
  <path d="M 80.259 14.694 C 77.42 14.694 75.239 12.49 75.239 9.707 C 75.239 6.924 77.42 4.72 80.259 4.72 C 83.097 4.72 85.279 6.924 85.279 9.707 C 85.279 12.49 83.097 14.694 80.259 14.694 M 80.259 12.734 C 81.951 12.734 83.131 11.41 83.131 9.707 C 83.131 8.004 81.94 6.679 80.259 6.679 C 78.556 6.679 77.365 8.004 77.365 9.707 C 77.365 11.41 78.556 12.734 80.259 12.734" style="fill:white;fill-rule:nonzero;"/>
  <path d="M 88.04 2.816 C 87.272 2.816 86.626 2.182 86.626 1.403 C 86.626 0.635 87.283 0 88.04 0 C 88.83 0 89.442 0.635 89.442 1.403 C 89.442 2.193 88.83 2.816 88.04 2.816 M 86.994 4.909 L 89.097 4.909 L 89.097 14.493 L 87.595 14.493 C 87.261 14.493 86.994 14.226 86.994 13.892 L 86.994 4.909 Z" style="fill:white;fill-rule:nonzero;"/>
  <path d="M 95.453 4.72 C 96.834 4.72 97.98 5.432 98.526 6.2 L 98.526 0.122 L 100.63 0.122 L 100.63 14.504 L 99.116 14.504 C 98.782 14.504 98.515 14.237 98.515 13.903 L 98.515 13.213 C 97.98 13.981 96.823 14.694 95.442 14.694 C 92.815 14.694 90.823 12.445 90.823 9.707 C 90.834 6.968 92.826 4.72 95.453 4.72 M 95.843 6.634 C 94.14 6.634 92.982 7.981 92.982 9.707 C 92.982 11.432 94.129 12.779 95.843 12.779 C 97.546 12.779 98.704 11.432 98.704 9.707 C 98.704 7.981 97.546 6.634 95.843 6.634" style="fill:white;fill-rule:nonzero;"/>
  <path d="M 14.321 61.755 C 10.59 61.755 7.517 60.841 5.103 59.012 C 2.725 57.183 1.353 54.805 0.988 51.879 L 6.914 51.879 C 7.975 55.025 10.498 56.598 14.486 56.598 C 16.644 56.598 18.418 55.884 19.808 54.458 C 21.235 53.068 21.948 51.093 21.948 48.532 L 21.948 45.294 C 21.07 46.538 19.844 47.563 18.272 48.368 C 16.699 49.172 14.998 49.574 13.169 49.574 C 9.474 49.574 6.347 48.239 3.786 45.569 C 1.262 42.862 0 39.552 0 35.638 C 0 31.76 1.262 28.486 3.786 25.816 C 6.347 23.109 9.474 21.755 13.169 21.755 C 14.998 21.755 16.699 22.158 18.272 22.963 C 19.844 23.731 21.07 24.737 21.948 25.981 L 21.948 22.304 L 27.984 22.304 L 27.984 48.038 C 27.984 52.574 26.685 55.994 24.088 58.298 C 21.527 60.603 18.272 61.755 14.321 61.755 Z M 8.45 41.673 C 10.023 43.246 11.961 44.033 14.266 44.033 C 16.57 44.033 18.51 43.246 20.082 41.673 C 21.655 40.064 22.442 38.052 22.442 35.638 C 22.442 33.224 21.655 31.229 20.082 29.657 C 18.51 28.047 16.57 27.243 14.266 27.243 C 11.961 27.243 10.023 28.047 8.45 29.657 C 6.877 31.229 6.091 33.224 6.091 35.638 C 6.091 38.052 6.877 40.064 8.45 41.673 Z M 46.323 50.288 C 42.593 50.288 39.447 48.898 36.886 46.117 C 34.362 43.338 33.1 39.973 33.1 36.022 C 33.1 32.071 34.362 28.706 36.886 25.926 C 39.447 23.145 42.593 21.755 46.323 21.755 C 48.189 21.755 49.909 22.176 51.482 23.018 C 53.054 23.822 54.262 24.81 55.103 25.981 L 55.103 22.304 L 61.138 22.304 L 61.138 49.739 L 55.103 49.739 L 55.103 46.063 C 54.262 47.233 53.054 48.239 51.482 49.08 C 49.909 49.885 48.189 50.288 46.323 50.288 Z M 41.55 42.277 C 43.086 43.959 45.044 44.801 47.421 44.801 C 49.798 44.801 51.756 43.959 53.292 42.277 C 54.829 40.594 55.597 38.509 55.597 36.022 C 55.597 33.534 54.829 31.449 53.292 29.767 C 51.756 28.084 49.798 27.243 47.421 27.243 C 45.044 27.243 43.086 28.084 41.55 29.767 C 40.014 31.449 39.245 33.534 39.245 36.022 C 39.245 38.509 40.014 40.594 41.55 42.277 Z M 103.237 49.739 L 103.237 34.321 C 103.237 32.089 102.816 30.352 101.975 29.108 C 101.17 27.865 99.963 27.243 98.354 27.243 C 96.415 27.243 94.86 27.992 93.69 29.492 C 92.519 30.992 91.897 33.095 91.825 35.802 L 91.825 49.739 L 85.789 49.739 L 85.789 34.321 C 85.789 32.089 85.368 30.352 84.527 29.108 C 83.722 27.865 82.514 27.243 80.905 27.243 C 78.893 27.243 77.284 28.029 76.077 29.602 C 74.906 31.175 74.321 33.388 74.321 36.241 L 74.321 49.739 L 68.286 49.739 L 68.286 22.304 L 74.321 22.304 L 74.321 26.035 C 76.003 23.182 78.601 21.755 82.113 21.755 C 86.246 21.755 89.081 23.566 90.617 27.187 C 91.385 25.468 92.556 24.133 94.129 23.182 C 95.738 22.231 97.494 21.755 99.397 21.755 C 102.469 21.755 104.883 22.798 106.64 24.883 C 108.395 26.968 109.273 29.785 109.273 33.333 L 109.273 49.739 L 103.237 49.739 Z M 128.107 50.288 C 124.01 50.288 120.644 48.953 118.011 46.282 C 115.377 43.575 114.06 40.155 114.06 36.022 C 114.06 31.888 115.359 28.486 117.956 25.816 C 120.553 23.109 123.956 21.755 128.162 21.755 C 132.405 21.755 135.826 23.237 138.422 26.2 C 141.02 29.126 142.172 32.894 141.879 37.503 L 120.041 37.503 C 120.114 39.624 120.919 41.399 122.455 42.825 C 123.992 44.252 125.949 44.965 128.327 44.965 C 131.692 44.965 133.997 43.685 135.24 41.125 L 141.55 41.125 C 140.709 43.795 139.1 45.99 136.722 47.709 C 134.344 49.429 131.472 50.288 128.107 50.288 Z M 127.998 26.804 C 126.022 26.804 124.321 27.371 122.895 28.504 C 121.505 29.602 120.608 31.175 120.206 33.224 L 135.405 33.224 C 134.965 31.102 134.069 29.511 132.716 28.45 C 131.363 27.352 129.789 26.804 127.998 26.804 Z M 156.708 50.288 C 153.452 50.288 150.709 49.483 148.477 47.874 C 146.282 46.264 145.112 44.106 144.965 41.399 L 151.221 41.399 C 151.66 44.106 153.544 45.459 156.872 45.459 C 158.226 45.459 159.305 45.221 160.109 44.746 C 160.914 44.233 161.317 43.503 161.317 42.551 C 161.317 41.6 161.006 40.85 160.384 40.302 C 159.762 39.753 158.719 39.295 157.257 38.93 L 152.757 37.722 C 148.075 36.479 145.734 33.717 145.734 29.438 C 145.734 27.133 146.667 25.285 148.533 23.895 C 150.398 22.469 152.867 21.755 155.94 21.755 C 158.903 21.755 161.335 22.505 163.237 24.005 C 165.139 25.505 166.2 27.498 166.42 29.986 L 160.384 29.986 C 159.799 27.718 158.299 26.584 155.885 26.584 C 154.677 26.584 153.709 26.84 152.977 27.352 C 152.245 27.828 151.879 28.504 151.879 29.382 C 151.879 30.955 153.105 32.052 155.556 32.675 L 160.165 33.882 C 165.03 35.126 167.463 37.887 167.463 42.167 C 167.463 44.764 166.456 46.776 164.444 48.203 C 162.469 49.593 159.891 50.288 156.708 50.288 Z" style="fill:white;fill-rule:nonzero;"/>
</svg>

<svg xmlns="http://www.w3.org/2000/svg" style="fill-rule:evenodd;clip-rule:evenodd;stroke-linejoin:round;stroke-miterlimit:2" viewBox="0 0 168 62"><path d="M126.24 11.07a1.07 1.07 0 0 1-.01-2.13c.58 0 1.07.48 1.07 1.06s-.48 1.07-1.06 1.07m-11.72 0a1.07 1.07 0 0 1-.01-2.13c.58 0 1.07.48 1.07 1.06s-.48 1.07-1.06 1.07m12.1-6.39 2.12-3.67a.44.44 0 1 0-.76-.43l-2.16 3.71a13.2 13.2 0 0 0-10.9-.01L112.78.57a.44.44 0 0 0-.82.22q0 .1.06.21l2.12 3.67a12.6 12.6 0 0 0-6.5 10.02h25.47a12.5 12.5 0 0 0-6.49-10m-87.64.03c1.38 0 2.53.71 3.08 1.48V4.9h2.1v9.6h-1.51a.6.6 0 0 1-.6-.6v-.7a3.8 3.8 0 0 1-3.07 1.5c-2.62 0-4.62-2.25-4.62-5 0-2.73 2-4.98 4.62-4.98m.38 1.91c-1.7 0-2.86 1.35-2.86 3.08 0 1.72 1.15 3.07 2.86 3.07 1.7 0 2.86-1.35 2.86-3.07 0-1.73-1.14-3.08-2.86-3.08m7.19-1.73h2.12v1.31a3.3 3.3 0 0 1 2.91-1.49c2.23 0 3.67 1.57 3.67 4v5.77h-1.52a.6.6 0 0 1-.6-.6V9.07c0-1.51-.77-2.44-2-2.44-1.4 0-2.46 1.1-2.46 3.14v4.72h-1.52a.6.6 0 0 1-.6-.6zm14.99-.18c1.38 0 2.52.71 3.07 1.48V.12h2.1V14.5H65.2a.6.6 0 0 1-.6-.6v-.69a3.8 3.8 0 0 1-3.07 1.48c-2.63 0-4.62-2.24-4.62-4.98s2-4.99 4.63-4.99m.37 1.91c-1.7 0-2.86 1.35-2.86 3.08 0 1.72 1.15 3.07 2.86 3.07 1.7 0 2.87-1.35 2.87-3.07 0-1.73-1.16-3.08-2.87-3.08m7.17-1.73h2.13v1.71a2.7 2.7 0 0 1 2.53-1.8q.39 0 .82.08v2.17a3 3 0 0 0-1.06-.18c-1.21 0-2.3 1.01-2.3 2.94v4.67h-1.52a.6.6 0 0 1-.6-.6zm11.18 9.8a4.94 4.94 0 0 1-5.02-5 4.94 4.94 0 0 1 5.02-4.98c2.84 0 5.02 2.2 5.02 4.99a4.94 4.94 0 0 1-5.02 4.98m0-1.96c1.7 0 2.87-1.32 2.87-3.02s-1.19-3.03-2.87-3.03c-1.7 0-2.9 1.32-2.9 3.03s1.2 3.02 2.9 3.02m7.78-9.91c-.77 0-1.41-.64-1.41-1.42 0-.76.65-1.4 1.41-1.4.79 0 1.4.64 1.4 1.4a1.4 1.4 0 0 1-1.4 1.42M86.99 4.9h2.1v9.58h-1.5a.6.6 0 0 1-.6-.6zm8.46-.18c1.38 0 2.53.71 3.08 1.48V.12h2.1V14.5h-1.51a.6.6 0 0 1-.6-.6v-.69a3.8 3.8 0 0 1-3.08 1.48c-2.62 0-4.62-2.24-4.62-4.98.01-2.74 2-4.99 4.63-4.99m.4 1.91c-1.71 0-2.87 1.35-2.87 3.08 0 1.72 1.15 3.07 2.86 3.07 1.7 0 2.86-1.35 2.86-3.07 0-1.73-1.15-3.08-2.86-3.08M14.32 61.76q-5.6 0-9.22-2.75A10.3 10.3 0 0 1 1 51.88h5.9q1.6 4.72 7.58 4.72 3.23 0 5.32-2.14 2.14-2.1 2.14-5.93V45.3a10 10 0 0 1-3.68 3.08q-2.35 1.2-5.1 1.2a12.5 12.5 0 0 1-9.38-4A14 14 0 0 1 0 35.64q0-5.82 3.79-9.82a12.4 12.4 0 0 1 9.38-4.07q2.75 0 5.1 1.21a9.5 9.5 0 0 1 3.68 3.02V22.3h6.03v25.74q0 6.8-3.9 10.26-3.82 3.45-9.76 3.46M8.45 41.67a8 8 0 0 0 5.82 2.36 8 8 0 0 0 5.81-2.36 8.3 8.3 0 0 0 2.36-6.03 8 8 0 0 0-2.36-5.98 7.8 7.8 0 0 0-5.81-2.42q-3.46 0-5.82 2.42a8 8 0 0 0-2.36 5.98q0 3.62 2.36 6.03m37.87 8.62q-5.6 0-9.43-4.17a14.5 14.5 0 0 1-3.79-10.1q0-5.92 3.79-10.1a12.3 12.3 0 0 1 9.43-4.17q2.8 0 5.16 1.27 2.36 1.2 3.62 2.96V22.3h6.04v27.44H55.1v-3.68a10.4 10.4 0 0 1-3.62 3.02q-2.36 1.2-5.16 1.2m-4.77-8.01a7.6 7.6 0 0 0 5.87 2.52 7.6 7.6 0 0 0 5.87-2.52 9 9 0 0 0 2.3-6.26q0-3.73-2.3-6.25a7.6 7.6 0 0 0-5.87-2.53 7.6 7.6 0 0 0-5.87 2.53 9 9 0 0 0-2.3 6.25q0 3.73 2.3 6.26m61.69 7.46V34.32q0-3.35-1.27-5.21a4 4 0 0 0-3.62-1.87q-2.9 0-4.66 2.25t-1.86 6.31v13.94h-6.04V34.32q0-3.35-1.26-5.21a4 4 0 0 0-3.62-1.87q-3.03 0-4.83 2.36-1.76 2.36-1.76 6.64v13.5H68.3V22.3h6.03v3.73q2.52-4.28 7.8-4.28 6.2 0 8.5 5.44a8.7 8.7 0 0 1 3.5-4q2.42-1.44 5.28-1.44 4.6 0 7.24 3.13 2.63 3.13 2.63 8.45v16.4zm24.87.55q-6.15 0-10.1-4-3.95-4.06-3.95-10.27t3.9-10.2q3.9-4.07 10.2-4.07 6.37 0 10.26 4.45 3.9 4.4 3.46 11.3h-21.84q.11 3.18 2.41 5.33a8.3 8.3 0 0 0 5.88 2.14q5.05 0 6.91-3.84h6.31a12.7 12.7 0 0 1-4.83 6.58 14.3 14.3 0 0 1-8.61 2.58M128 26.8q-2.97 0-5.1 1.7a7.6 7.6 0 0 0-2.7 4.72h15.2q-.66-3.17-2.68-4.77A7.3 7.3 0 0 0 128 26.8m28.7 23.49q-4.88 0-8.22-2.42a8.2 8.2 0 0 1-3.51-6.47h6.25q.66 4.06 5.65 4.06 2.04 0 3.24-.71 1.2-.78 1.2-2.2t-.93-2.25a8 8 0 0 0-3.12-1.37l-4.5-1.2q-7.03-1.87-7.03-8.3 0-3.45 2.8-5.53 2.8-2.14 7.41-2.14 4.44 0 7.3 2.24a8.2 8.2 0 0 1 3.18 5.99h-6.04q-.87-3.4-4.5-3.4-1.8 0-2.9.76a2.3 2.3 0 0 0-1.1 2.03q0 2.36 3.68 3.3l4.6 1.2q7.3 1.86 7.3 8.29 0 3.9-3.02 6.03-2.96 2.1-7.73 2.09" style="fill:#fff;fill-rule:nonzero"/></svg>
